img/svg/16/net/polarity.svg

<svg xmlns="http://www.w3.org/2000/svg" viewBox="0 0 16 16" enable-background="new 0 0 16 16"><path d="M14 1h-12c-.552 0-1 .448-1 1v12c0 .552.448 1 1 1h12c.552 0 1-.448 1-1v-12c0-.552-.448-1-1-1zm-8 5.5v6.532c0 .534-.433.968-.968.968h-.064c-.535 0-.968-.434-.968-.968v-6.532c0-2.485 2.015-4.5 4.5-4.5.171 0 .334.032.5.05v2c-.162-.032-.329-.05-.5-.05-1.381 0-2.5 1.119-2.5 2.5zm2.5 4.5c-.529 0-1.029-.108-1.5-.276v-2.235c.419.316.935.511 1.5.511 1.381 0 2.5-1.119 2.5-2.5 0-.815-.396-1.532-1-1.989v-2.235c1.744.62 3 2.268 3 4.224 0 2.485-2.015 4.5-4.5 4.5z" fill="#ccc"/></svg>

<svg xmlns="http://www.w3.org/2000/svg" viewBox="0 0 16 16"><path fill="#ccc" d="M14 1H2a1 1 0 0 0-1 1v12a1 1 0 0 0 1 1h12a1 1 0 0 0 1-1V2a1 1 0 0 0-1-1zM6 6.5v6.532a.968.968 0 0 1-.968.968h-.064A.968.968 0 0 1 4 13.032V6.5A4.5 4.5 0 0 1 8.5 2c.171 0 .334.032.5.05v2A2.5 2.5 0 0 0 6 6.5zM8.5 11a4.445 4.445 0 0 1-1.5-.276V8.489c.419.316.935.511 1.5.511A2.5 2.5 0 0 0 11 6.5a2.49 2.49 0 0 0-1-1.989V2.276c1.744.62 3 2.268 3 4.224A4.5 4.5 0 0 1 8.5 11z"/></svg>
